Newaita-dark/mimetypes/256/virtualbox-ovf.svg

<?xml version="1.0" encoding="UTF-8"?>
<svg xmlns="http://www.w3.org/2000/svg" xmlns:xlink="http://www.w3.org/1999/xlink" width="256pt" height="256pt" viewBox="0 0 256 256" version="1.1">
<defs>
<linearGradient id="linear0" gradientUnits="userSpaceOnUse" x1="254" y1="233.5" x2="254" y2="254.666672" gradientTransform="matrix(0.500048,0,0,0.500048,-0.0000305205,107.510281)">
<stop offset="0" style="stop-color:rgb(0%,0%,0%);stop-opacity:0.27451;"/>
<stop offset="1" style="stop-color:rgb(0%,0%,0%);stop-opacity:0;"/>
</linearGradient>
<radialGradient id="radial0" gradientUnits="userSpaceOnUse" cx="450.908936" cy="189.579361" fx="450.908936" fy="189.579361" r="21.166656" gradientTransform="matrix(0.00000139336,-0.62506,-1.125108,-0.000000812309,424.98344,508.762661)">
<stop offset="0" style="stop-color:rgb(0%,0%,0%);stop-opacity:0.313725;"/>
<stop offset="0.222222" style="stop-color:rgb(0%,0%,0%);stop-opacity:0.27451;"/>
<stop offset="1" style="stop-color:rgb(0%,0%,0%);stop-opacity:0;"/>
</radialGradient>
<radialGradient id="radial1" gradientUnits="userSpaceOnUse" cx="450.908936" cy="189.579361" fx="450.908936" fy="189.579361" r="21.166656" gradientTransform="matrix(-0.00000139336,0.62506,1.125108,0.000000812309,-169.636162,-60.219831)">
<stop offset="0" style="stop-color:rgb(0%,0%,0%);stop-opacity:0.313725;"/>
<stop offset="0.222222" style="stop-color:rgb(0%,0%,0%);stop-opacity:0.27451;"/>
<stop offset="1" style="stop-color:rgb(0%,0%,0%);stop-opacity:0;"/>
</radialGradient>
<radialGradient id="radial2" gradientUnits="userSpaceOnUse" cx="450.908936" cy="189.579361" fx="450.908936" fy="189.579361" r="21.166656" gradientTransform="matrix(-0.00000139336,-0.62506,1.125108,-0.000000812309,-169.636162,508.762661)">
<stop offset="0" style="stop-color:rgb(0%,0%,0%);stop-opacity:0.313725;"/>
<stop offset="0.222222" style="stop-color:rgb(0%,0%,0%);stop-opacity:0.27451;"/>
<stop offset="1" style="stop-color:rgb(0%,0%,0%);stop-opacity:0;"/>
</radialGradient>
<radialGradient id="radial3" gradientUnits="userSpaceOnUse" cx="450.908936" cy="189.579361" fx="450.908936" fy="189.579361" r="21.166656" gradientTransform="matrix(0.00000139336,0.62506,-1.125108,0.000000812309,424.983428,-60.219835)">
<stop offset="0" style="stop-color:rgb(0%,0%,0%);stop-opacity:0.313725;"/>
<stop offset="0.222222" style="stop-color:rgb(0%,0%,0%);stop-opacity:0.27451;"/>
<stop offset="1" style="stop-color:rgb(0%,0%,0%);stop-opacity:0;"/>
</radialGradient>
<linearGradient id="linear1" gradientUnits="userSpaceOnUse" x1="254" y1="-168.666656" x2="254" y2="233.5" gradientTransform="matrix(0.500048,0,0,0.500048,0,107.510266)">
<stop offset="0" style="stop-color:rgb(100%,80%,50.196078%);stop-opacity:1;"/>
<stop offset="1" style="stop-color:rgb(100%,71.764706%,30.196078%);stop-opacity:1;"/>
</linearGradient>
<linearGradient id="linear2" gradientUnits="userSpaceOnUse" x1="253.130798" y1="-129.433121" x2="253.130798" y2="272.733551" gradientTransform="matrix(3.779528,0,0,3.779528,3.285154,664.314209)">
<stop offset="0" style="stop-color:rgb(73.72549%,66.666667%,64.313725%);stop-opacity:1;"/>
<stop offset="1" style="stop-color:rgb(84.313725%,80%,78.431373%);stop-opacity:1;"/>
</linearGradient>
</defs>
<g id="surface1">
<path style=" stroke:none;fill-rule:nonzero;fill:rgb(0%,0%,0%);fill-opacity:0.196078;" d="M 31.753906 224.269531 C 25.890625 224.269531 21.167969 219.550781 21.167969 213.6875 L 21.167969 212.363281 C 21.167969 218.226562 25.890625 222.949219 31.753906 222.949219 L 222.269531 222.949219 C 228.136719 222.949219 232.855469 218.226562 232.855469 212.363281 L 232.855469 213.6875 C 232.855469 219.550781 228.136719 224.269531 222.269531 224.269531 Z M 31.753906 224.269531 "/>
<path style=" stroke:none;fill-rule:nonzero;fill:url(#linear0);" d="M 41.015625 224.269531 L 214.332031 224.269531 L 214.332031 234.855469 L 41.015625 234.855469 Z M 41.015625 224.269531 "/>
<path style=" stroke:none;fill-rule:nonzero;fill:url(#radial0);" d="M 214.332031 224.269531 L 235.5 224.269531 L 235.5 213.6875 L 214.332031 213.6875 Z M 214.332031 224.269531 "/>
<path style=" stroke:none;fill-rule:nonzero;fill:url(#radial1);" d="M 41.015625 224.269531 L 19.84375 224.269531 L 19.84375 234.855469 L 41.015625 234.855469 Z M 41.015625 224.269531 "/>
<path style=" stroke:none;fill-rule:nonzero;fill:url(#radial2);" d="M 41.015625 224.269531 L 19.84375 224.269531 L 19.84375 213.6875 L 41.015625 213.6875 Z M 41.015625 224.269531 "/>
<path style=" stroke:none;fill-rule:nonzero;fill:url(#radial3);" d="M 214.332031 224.269531 L 235.5 224.269531 L 235.5 234.855469 L 214.332031 234.855469 Z M 214.332031 224.269531 "/>
<path style=" stroke:none;fill-rule:nonzero;fill:url(#linear1);" d="M 29.105469 23.167969 L 224.917969 23.167969 C 229.300781 23.167969 232.855469 26.722656 232.855469 31.105469 L 232.855469 216.332031 C 232.855469 220.71875 229.300781 224.269531 224.917969 224.269531 L 29.105469 224.269531 C 24.722656 224.269531 21.167969 220.71875 21.167969 216.332031 L 21.167969 31.105469 C 21.167969 26.722656 24.722656 23.167969 29.105469 23.167969 Z M 29.105469 23.167969 "/>
<path style="fill:none;stroke-width:21.155001;stroke-linecap:butt;stroke-linejoin:miter;stroke:rgb(7.843138%,7.843138%,7.843138%);stroke-opacity:0.235294;stroke-miterlimit:4;" d="M 148.165538 85.330695 L 179.920318 85.330695 L 222.252213 170.002297 L 275.169035 21.836758 L 317.50093 117.085475 L 349.247898 42.9988 L 391.579793 138.247517 L 433.9195 138.247517 " transform="matrix(0.500048,0,0,0.500048,0,107.510266)"/>
<path style=" stroke:none;fill-rule:nonzero;fill:rgb(100%,100%,100%);fill-opacity:0.117647;" d="M 21.167969 195.164062 L 21.167969 216.332031 C 21.167969 220.730469 24.710938 224.269531 29.105469 224.269531 L 224.917969 224.269531 C 229.316406 224.269531 232.855469 220.730469 232.855469 216.332031 L 232.855469 195.164062 Z M 21.167969 195.164062 "/>
<path style=" stroke:none;fill-rule:nonzero;fill:rgb(0%,0%,0%);fill-opacity:0.235294;" d="M 100.78125 23.167969 L 101.316406 91.863281 L 105.058594 95.605469 L 108.59375 92.070312 L 112.128906 95.605469 L 115.765625 91.96875 L 119.40625 95.605469 L 123.042969 91.96875 L 126.679688 95.605469 L 130.320312 91.96875 L 133.957031 95.605469 L 137.597656 91.96875 L 141.234375 95.605469 L 144.875 91.96875 L 148.511719 95.605469 L 152.253906 91.863281 L 152.253906 23.167969 Z M 100.78125 23.167969 "/>
<path style="fill-rule:nonzero;fill:url(#linear2);stroke-width:11.338583;stroke-linecap:round;stroke-linejoin:round;stroke:rgb(12.941177%,12.941177%,12.941177%);stroke-opacity:1;stroke-miterlimit:4;" d="M 764.454597 175.11124 L 768.292814 666.845803 L 796.577516 695.130505 L 823.297407 668.410615 L 849.987773 695.130505 L 877.504831 667.613447 L 904.992365 695.130505 L 932.509424 667.613447 L 959.996958 695.130505 L 987.514017 667.613447 L 1015.001551 695.130505 L 1042.489085 667.613447 L 1070.006143 695.130505 L 1097.493677 667.613447 L 1125.010736 695.130505 L 1153.295438 666.845803 L 1153.295438 175.11124 Z M 764.454597 175.11124 " transform="matrix(0.132304,0,0,0.132304,0,0)"/>
<path style=" stroke:none;fill-rule:nonzero;fill:rgb(100%,100%,100%);fill-opacity:0.392157;" d="M 29.105469 23.167969 C 24.710938 23.167969 21.167969 26.710938 21.167969 31.105469 L 21.167969 33.753906 C 21.167969 29.355469 24.710938 25.816406 29.105469 25.816406 L 224.917969 25.816406 C 229.316406 25.816406 232.855469 29.355469 232.855469 33.753906 L 232.855469 31.105469 C 232.855469 26.710938 229.316406 23.167969 224.917969 23.167969 Z M 29.105469 23.167969 "/>
<path style=" stroke:none;fill-rule:nonzero;fill:rgb(1.960784%,1.960784%,1.960784%);fill-opacity:0.235294;" d="M 29.105469 224.269531 C 24.710938 224.269531 21.167969 220.730469 21.167969 216.332031 L 21.167969 213.6875 C 21.167969 218.085938 24.710938 221.625 29.105469 221.625 L 224.917969 221.625 C 229.316406 221.625 232.855469 218.085938 232.855469 213.6875 L 232.855469 216.332031 C 232.855469 220.730469 229.316406 224.269531 224.917969 224.269531 Z M 29.105469 224.269531 "/>
<path style=" stroke:none;fill-rule:nonzero;fill:rgb(12.941177%,12.941177%,12.941177%);fill-opacity:1;" d="M 29.105469 22.417969 C 24.308594 22.417969 20.417969 26.308594 20.417969 31.109375 L 20.417969 216.332031 C 20.417969 221.132812 24.308594 225.023438 29.105469 225.023438 L 224.917969 225.023438 C 229.71875 225.023438 233.605469 221.132812 233.605469 216.332031 L 233.605469 31.109375 C 233.605469 26.308594 229.71875 22.417969 224.917969 22.417969 Z M 29.105469 23.917969 L 224.917969 23.917969 C 228.914062 23.917969 232.105469 27.113281 232.105469 31.109375 L 232.105469 216.332031 C 232.105469 220.328125 228.914062 223.519531 224.917969 223.519531 L 29.105469 223.519531 C 25.113281 223.519531 21.917969 220.328125 21.917969 216.332031 L 21.917969 31.109375 C 21.917969 27.113281 25.113281 23.917969 29.105469 23.917969 Z M 29.105469 23.917969 "/>
<path style=" stroke:none;fill-rule:nonzero;fill:rgb(0%,0%,0%);fill-opacity:0.235294;" d="M 50.277344 33.753906 L 37.046875 49.628906 L 44.984375 49.628906 L 44.984375 70.796875 L 55.566406 70.796875 L 55.566406 49.628906 L 63.507812 49.628906 Z M 50.277344 33.753906 "/>
<path style=" stroke:none;fill-rule:nonzero;fill:rgb(0%,0%,0%);fill-opacity:0.235294;" d="M 76.738281 33.753906 L 63.507812 49.628906 L 71.445312 49.628906 L 71.445312 70.796875 L 82.027344 70.796875 L 82.027344 49.628906 L 89.96875 49.628906 Z M 76.738281 33.753906 "/>
<path style=" stroke:none;fill-rule:nonzero;fill:rgb(0%,0%,0%);fill-opacity:0.235294;" d="M 39.691406 76.089844 L 87.320312 76.089844 L 87.320312 81.382812 L 39.691406 81.382812 Z M 39.691406 76.089844 "/>
<path style=" stroke:none;fill-rule:nonzero;fill:rgb(25.490198%,25.490198%,25.490198%);fill-opacity:0.0784314;" d="M 29.105469 23.167969 C 24.710938 23.167969 21.167969 26.710938 21.167969 31.105469 L 21.167969 44.335938 L 232.855469 44.335938 L 232.855469 31.105469 C 232.855469 26.710938 229.316406 23.167969 224.917969 23.167969 Z M 29.105469 23.167969 "/>
</g>
</svg>

<svg xmlns="http://www.w3.org/2000/svg" width="256pt" height="256pt" viewBox="0 0 256 256"><defs><linearGradient id="a" gradientUnits="userSpaceOnUse" x1="254" y1="233.5" x2="254" y2="254.667" gradientTransform="matrix(.50005 0 0 .50005 0 107.51)"><stop offset="0" stop-opacity=".275"/><stop offset="1" stop-opacity="0"/></linearGradient><radialGradient id="b" gradientUnits="userSpaceOnUse" cx="450.909" cy="189.579" fx="450.909" fy="189.579" r="21.167" gradientTransform="matrix(0 -.62506 -1.1251 0 424.983 508.763)"><stop offset="0" stop-opacity=".314"/><stop offset=".222" stop-opacity=".275"/><stop offset="1" stop-opacity="0"/></radialGradient><radialGradient id="c" gradientUnits="userSpaceOnUse" cx="450.909" cy="189.579" fx="450.909" fy="189.579" r="21.167" gradientTransform="matrix(0 .62506 1.1251 0 -169.636 -60.22)"><stop offset="0" stop-opacity=".314"/><stop offset=".222" stop-opacity=".275"/><stop offset="1" stop-opacity="0"/></radialGradient><radialGradient id="d" gradientUnits="userSpaceOnUse" cx="450.909" cy="189.579" fx="450.909" fy="189.579" r="21.167" gradientTransform="matrix(0 -.62506 1.1251 0 -169.636 508.763)"><stop offset="0" stop-opacity=".314"/><stop offset=".222" stop-opacity=".275"/><stop offset="1" stop-opacity="0"/></radialGradient><radialGradient id="e" gradientUnits="userSpaceOnUse" cx="450.909" cy="189.579" fx="450.909" fy="189.579" r="21.167" gradientTransform="matrix(0 .62506 -1.1251 0 424.983 -60.22)"><stop offset="0" stop-opacity=".314"/><stop offset=".222" stop-opacity=".275"/><stop offset="1" stop-opacity="0"/></radialGradient><linearGradient id="f" gradientUnits="userSpaceOnUse" x1="254" y1="-168.667" x2="254" y2="233.5" gradientTransform="matrix(.50005 0 0 .50005 0 107.51)"><stop offset="0" stop-color="#ffcc80"/><stop offset="1" stop-color="#ffb74d"/></linearGradient><linearGradient id="g" gradientUnits="userSpaceOnUse" x1="253.131" y1="-129.433" x2="253.131" y2="272.734" gradientTransform="matrix(3.77953 0 0 3.77953 3.285 664.314)"><stop offset="0" stop-color="#bcaaa4"/><stop offset="1" stop-color="#d7ccc8"/></linearGradient></defs><path d="M31.754 224.27a10.561 10.561 0 0 1-10.586-10.583v-1.324a10.564 10.564 0 0 0 10.586 10.586H222.27a10.562 10.562 0 0 0 10.585-10.586v1.325a10.559 10.559 0 0 1-10.585 10.582zm0 0" fill-opacity=".196"/><path d="M41.016 224.27h173.316v10.585H41.016zm0 0" fill="url(#a)"/><path d="M214.332 224.27H235.5v-10.583h-21.168zm0 0" fill="url(#b)"/><path d="M41.016 224.27H19.844v10.585h21.172zm0 0" fill="url(#c)"/><path d="M41.016 224.27H19.844v-10.583h21.172zm0 0" fill="url(#d)"/><path d="M214.332 224.27H235.5v10.585h-21.168zm0 0" fill="url(#e)"/><path d="M29.105 23.168h195.813a7.939 7.939 0 0 1 7.937 7.937v185.227a7.936 7.936 0 0 1-7.937 7.938H29.105a7.936 7.936 0 0 1-7.937-7.938V31.105a7.939 7.939 0 0 1 7.937-7.937zm0 0" fill="url(#f)"/><path d="M74.09 150.18h15.879l21.168 42.34 26.46-74.09 21.169 47.629 15.875-37.047 21.168 47.629h21.172" fill="none" stroke-width="10.57855775" stroke="#141414" stroke-opacity=".235"/><path d="M21.168 195.164v21.168a7.921 7.921 0 0 0 7.937 7.938h195.813a7.919 7.919 0 0 0 7.937-7.938v-21.168zm0 0" fill="#fff" fill-opacity=".118"/><path d="M100.781 23.168l.535 68.695 3.743 3.742 3.535-3.535 3.535 3.535 3.637-3.636 3.64 3.636 3.637-3.636 3.637 3.636 3.64-3.636 3.637 3.636 3.64-3.636 3.637 3.636 3.641-3.636 3.637 3.636 3.742-3.742V23.168zm0 0" fill-opacity=".235"/><path d="M764.455 175.111l3.838 491.735 28.285 28.285 26.72-26.72 26.69 26.72 27.517-27.518 27.487 27.518 27.517-27.518 27.488 27.518 27.517-27.518 27.488 27.518 27.487-27.518 27.517 27.518 27.488-27.518 27.517 27.518 28.284-28.285V175.11zm0 0" transform="scale(.1323)" fill="url(#g)" stroke-width="11.339" stroke-linecap="round" stroke-linejoin="round" stroke="#212121"/><path d="M29.105 23.168a7.924 7.924 0 0 0-7.937 7.937v2.649a7.921 7.921 0 0 1 7.937-7.938h195.813a7.919 7.919 0 0 1 7.937 7.938v-2.649a7.921 7.921 0 0 0-7.937-7.937zm0 0" fill="#fff" fill-opacity=".392"/><path d="M29.105 224.27a7.921 7.921 0 0 1-7.937-7.938v-2.644a7.921 7.921 0 0 0 7.937 7.937h195.813a7.919 7.919 0 0 0 7.937-7.938v2.645a7.919 7.919 0 0 1-7.937 7.938zm0 0" fill="#050505" fill-opacity=".235"/><path d="M29.105 22.418c-4.796 0-8.687 3.89-8.687 8.691v185.223c0 4.8 3.89 8.691 8.687 8.691h195.813c4.8 0 8.687-3.89 8.687-8.691V31.109c0-4.8-3.886-8.691-8.687-8.691zm0 1.5h195.813a7.157 7.157 0 0 1 7.187 7.191v185.223a7.154 7.154 0 0 1-7.187 7.188H29.105a7.156 7.156 0 0 1-7.187-7.188V31.109a7.16 7.16 0 0 1 7.187-7.191zm0 0" fill="#212121"/><path d="M50.277 33.754l-13.23 15.875h7.937v21.168h10.582V49.629h7.942zm0 0M76.738 33.754l-13.23 15.875h7.937v21.168h10.582V49.629h7.942zm0 0M39.691 76.09h47.63v5.293H39.69zm0 0" fill-opacity=".235"/><path d="M29.105 23.168a7.924 7.924 0 0 0-7.937 7.937v13.23h211.687v-13.23a7.921 7.921 0 0 0-7.937-7.937zm0 0" fill="#414141" fill-opacity=".078"/></svg>
